X: 36825
T: Shifting Peat And Feet
R: jig
M: 6/8
K: Edorian
|:ABB dBd|e2{f}e edB|B/c/de edB|ddd dBA|
ABB dBd|e2{f}e edB|baf fed|fee edB|
ABB dBd|e2{f}e edB|B/c/de B/c/de|ddd dBA|
ABB dBd|e2{f}e edB|baf fed|1 fee e3:|2 fee e2d||
|:BAF FED|E>EE EDB,|B,/C/DE EDB,|D>DD DB,A,|
BAF FED|E>EE EDB,|B,/C/DE EDB,|1 D>DD Ded:|2 D>DD D3||
|:ABd dBd|efe edB|B/c/de edB|d2{e}d dBA|
ABd dBd|efe edB|BAF FED|1 FEE E3:|2 FED FED|E6||

